X:16
T:Calder Fair (reel)
B:CGI.041
F:file ID jcgi/16calder
Z:bill@capeirish.com
Q:180
L:1/8
M:C|
R:reel
K:D
"with spirit" 
dcBA d3F|ABAF A4|dcBA d2F2|EBB^A B4|
dcBA d3F|ABAF A4|dcBA d2F2|EFGA B4 ||
Fdd>e d2d2|Bee^d e4|gfed dcBA|Bece d4|
Addc d2d2|Bee^d e2fg|agfe dcBA|Bdce Hd4 ||

